assets/sonr-icons/currency-ruble.svg

<svg xmlns="http://www.w3.org/2000/svg" width="24" height="24" fill="none" viewBox="0 0 24 24"><path fill="#000" fill-rule="evenodd" d="M8.64001 2.88C8.10982 2.88 7.68001 3.30981 7.68001 3.84V10.56H6.72001C6.18982 10.56 5.76001 10.9898 5.76001 11.52C5.76001 12.0502 6.18982 12.48 6.72001 12.48H7.68001V14.4H6.72001C6.18982 14.4 5.76001 14.8298 5.76001 15.36C5.76001 15.8902 6.18982 16.32 6.72001 16.32H7.68001V20.16C7.68001 20.6902 8.10982 21.12 8.64001 21.12C9.1702 21.12 9.60001 20.6902 9.60001 20.16V16.32H13.44C13.9702 16.32 14.4 15.8902 14.4 15.36C14.4 14.8298 13.9702 14.4 13.44 14.4H9.60001V12.48H14.4C17.0512 12.48 19.2 10.3312 19.2 7.68C19.2 5.02881 17.0512 2.88 14.4 2.88H8.64001ZM17.28 7.68C17.28 9.27081 15.9908 10.56 14.4 10.56H9.60001V4.8H14.4C15.9908 4.8 17.28 6.0892 17.28 7.68Z" clip-rule="evenodd"/></svg>

<svg xmlns="http://www.w3.org/2000/svg" width="24" height="24" fill="none"><path fill="currentColor" fill-rule="evenodd" d="M8.64 2.88a.96.96 0 0 0-.96.96v6.72h-.96a.96.96 0 1 0 0 1.92h.96v1.92h-.96a.96.96 0 1 0 0 1.92h.96v3.84a.96.96 0 1 0 1.92 0v-3.84h3.84a.96.96 0 1 0 0-1.92H9.6v-1.92h4.8a4.8 4.8 0 1 0 0-9.6zm8.64 4.8a2.88 2.88 0 0 1-2.88 2.88H9.6V4.8h4.8a2.88 2.88 0 0 1 2.88 2.88" clip-rule="evenodd"/></svg>
